www/assets/icons/sell.svg

<svg width="24" height="24" viewBox="0 0 24 24" xmlns="http://www.w3.org/2000/svg" fill='currentColor'><path d="M21.4082 11.4124L12.5782 2.58244C12.2082 2.21244 11.6982 2.00244 11.1682 2.00244H3.99817C2.89817 2.00244 1.99817 2.90244 1.99817 4.00244V11.1724C1.99817 11.7024 2.20817 12.2124 2.58817 12.5824L11.4182 21.4124C12.1982 22.1924 13.4682 22.1924 14.2482 21.4124L21.4182 14.2424C22.1982 13.4624 22.1982 12.2024 21.4082 11.4124ZM6.49817 8.00244C5.66817 8.00244 4.99817 7.33244 4.99817 6.50244C4.99817 5.67244 5.66817 5.00244 6.49817 5.00244C7.32817 5.00244 7.99817 5.67244 7.99817 6.50244C7.99817 7.33244 7.32817 8.00244 6.49817 8.00244Z"/></svg>

<svg xmlns="http://www.w3.org/2000/svg" width="24" height="24" viewBox="0 0 24 24" fill='currentColor'><path d="m21.408 11.412-8.83-8.83c-.37-.37-.88-.58-1.41-.58h-7.17c-1.1 0-2 .9-2 2v7.17c0 .53.21 1.04.59 1.41l8.83 8.83c.78.78 2.05.78 2.83 0l7.17-7.17c.78-.78.78-2.04-.01-2.83m-14.91-3.41c-.83 0-1.5-.67-1.5-1.5s.67-1.5 1.5-1.5 1.5.67 1.5 1.5-.67 1.5-1.5 1.5"/></svg>
